dist/img/icons/arrow.svg

<svg width="24" height="15" viewBox="0 0 24 15" fill="none" xmlns="http://www.w3.org/2000/svg">
<path d="M16.7659 10.8636L16.1296 11.5L17.4023 12.7728L18.0387 12.1364L16.7659 10.8636ZM21.4023 7.5L22.0387 8.1364L22.6751 7.5L22.0387 6.8636L21.4023 7.5ZM18.0387 2.8636L17.4023 2.22721L16.1296 3.5L16.7659 4.1364L18.0387 2.8636ZM18.0387 12.1364L22.0387 8.1364L20.7659 6.8636L16.7659 10.8636L18.0387 12.1364ZM22.0387 6.8636L18.0387 2.8636L16.7659 4.1364L20.7659 8.1364L22.0387 6.8636ZM20.4023 6.6H1.40234V8.4H20.4023V6.6Z" fill="white"/>
</svg>

<svg width="24" height="15" viewBox="0 0 24 15" fill="none" xmlns="http://www.w3.org/2000/svg"><path d="M16.766 10.864l-.636.636 1.272 1.273.637-.637-1.273-1.272zM21.402 7.5l.637.636.636-.636-.636-.636-.637.636zM18.04 2.864l-.637-.637L16.13 3.5l.636.636 1.273-1.272zm0 9.272l4-4-1.273-1.272-4 4 1.273 1.272zm4-5.272l-4-4-1.273 1.272 4 4 1.273-1.272zM20.402 6.6h-19v1.8h19V6.6z" fill="#fff"/></svg>
